ummisco.gama.ui.shared/svg/window/icon16.svg

<svg xmlns="http://www.w3.org/2000/svg" xmlns:xl="http://www.w3.org/1999/xlink" width="16" height="16" version="1.1" viewBox="-952 -3089.652 16 16"><g id="ICONES" fill="none" fill-opacity="1" stroke="none" stroke-dasharray="none" stroke-opacity="1"><title>ICONES</title><g id="ICONES_Calque_1"><title>Calque 1</title><g id="Group_4337"><g id="Graphic_4346"><path fill="#fff" d="M -946.4 -3089.652 L -941.6 -3089.652 C -940 -3089.652 -939.2 -3089.652 -938.24 -3089.332 C -937.44 -3089.012 -936.64 -3088.212 -936.32 -3087.412 C -936 -3086.452 -936 -3085.652 -936 -3084.052 L -936 -3079.252 C -936 -3077.652 -936 -3076.852 -936.32 -3075.892 C -936.64 -3075.092 -937.44 -3074.292 -938.24 -3073.972 C -939.2 -3073.652 -940 -3073.652 -941.6 -3073.652 L -946.4 -3073.652 C -948 -3073.652 -948.8 -3073.652 -949.76 -3073.972 C -950.56 -3074.292 -951.36 -3075.092 -951.68 -3075.892 C -952 -3076.852 -952 -3077.652 -952 -3079.252 L -952 -3084.052 C -952 -3085.652 -952 -3086.452 -951.68 -3087.412 C -951.36 -3088.212 -950.56 -3089.012 -949.76 -3089.332 C -948.8 -3089.652 -948 -3089.652 -946.4 -3089.652 M -946.4 -3089.652"/></g><g id="Group_4338"><g id="Graphic_4345"><path fill="#efb54f" fill-opacity=".252" d="M -939.2049 -3086.447 C -941.8532 -3089.0952 -946.1468 -3089.0952 -948.7951 -3086.447 C -951.4433 -3083.7987 -951.4433 -3079.505 -948.7951 -3076.857 C -946.1468 -3074.2086 -941.8532 -3074.2086 -939.2049 -3076.857 C -936.5567 -3079.505 -936.5567 -3083.7987 -939.2049 -3086.447 M -939.8443 -3085.8076 C -937.5491 -3083.5125 -937.5491 -3079.7913 -939.8443 -3077.4962 C -942.1394 -3075.201 -945.8606 -3075.201 -948.1557 -3077.4962 C -950.4509 -3079.7913 -950.4509 -3083.5125 -948.1557 -3085.8076 C -945.8606 -3088.1028 -942.1394 -3088.1028 -939.8443 -3085.8076"/><path stroke="#efb64f" stroke-linecap="round" stroke-linejoin="round" stroke-width="0" d="M -939.2049 -3086.447 C -941.8532 -3089.0952 -946.1468 -3089.0952 -948.7951 -3086.447 C -951.4433 -3083.7987 -951.4433 -3079.505 -948.7951 -3076.857 C -946.1468 -3074.2086 -941.8532 -3074.2086 -939.2049 -3076.857 C -936.5567 -3079.505 -936.5567 -3083.7987 -939.2049 -3086.447 M -939.8443 -3085.8076 C -937.5491 -3083.5125 -937.5491 -3079.7913 -939.8443 -3077.4962 C -942.1394 -3075.201 -945.8606 -3075.201 -948.1557 -3077.4962 C -950.4509 -3079.7913 -950.4509 -3083.5125 -948.1557 -3085.8076 C -945.8606 -3088.1028 -942.1394 -3088.1028 -939.8443 -3085.8076"/></g><g id="Graphic_4344"><path fill="#d3673a" fill-opacity=".249" d="M -940.4037 -3085.2482 C -942.3899 -3087.2344 -945.6101 -3087.2344 -947.5963 -3085.2482 C -949.5825 -3083.262 -949.5825 -3080.0418 -947.5963 -3078.0556 C -945.6101 -3076.0694 -942.3899 -3076.0694 -940.4037 -3078.0556 C -938.4175 -3080.0418 -938.4175 -3083.262 -940.4037 -3085.2482 M -941.043 -3084.609 C -939.41 -3082.9758 -939.41 -3080.328 -941.043 -3078.695 C -942.6761 -3077.062 -945.3239 -3077.062 -946.957 -3078.695 C -948.59 -3080.328 -948.59 -3082.9758 -946.957 -3084.609 C -945.3239 -3086.242 -942.6761 -3086.242 -941.043 -3084.609"/><path stroke="#d2673a" stroke-linecap="round" stroke-linejoin="round" stroke-width="0" d="M -940.4037 -3085.2482 C -942.3899 -3087.2344 -945.6101 -3087.2344 -947.5963 -3085.2482 C -949.5825 -3083.262 -949.5825 -3080.0418 -947.5963 -3078.0556 C -945.6101 -3076.0694 -942.3899 -3076.0694 -940.4037 -3078.0556 C -938.4175 -3080.0418 -938.4175 -3083.262 -940.4037 -3085.2482 M -941.043 -3084.609 C -939.41 -3082.9758 -939.41 -3080.328 -941.043 -3078.695 C -942.6761 -3077.062 -945.3239 -3077.062 -946.957 -3078.695 C -948.59 -3080.328 -948.59 -3082.9758 -946.957 -3084.609 C -945.3239 -3086.242 -942.6761 -3086.242 -941.043 -3084.609"/></g><g id="Graphic_4343"><path fill="#3570a0" fill-opacity=".25" d="M -941.6025 -3084.0494 C -942.9266 -3085.3736 -945.0734 -3085.3736 -946.3975 -3084.0494 C -947.7217 -3082.7253 -947.7217 -3080.5785 -946.3975 -3079.2544 C -945.0734 -3077.9303 -942.9266 -3077.9303 -941.6025 -3079.2544 C -940.2783 -3080.5785 -940.2783 -3082.7253 -941.6025 -3084.0494 M -942.2418 -3083.41 C -941.2708 -3082.439 -941.2708 -3080.8647 -942.2418 -3079.8937 C -943.2128 -3078.9227 -944.7872 -3078.9227 -945.7582 -3079.8937 C -946.7292 -3080.8647 -946.7292 -3082.439 -945.7582 -3083.41 C -944.7872 -3084.381 -943.2128 -3084.381 -942.2418 -3083.41"/><path stroke="#3770a0" stroke-linecap="round" stroke-linejoin="round" stroke-width="0" d="M -941.6025 -3084.0494 C -942.9266 -3085.3736 -945.0734 -3085.3736 -946.3975 -3084.0494 C -947.7217 -3082.7253 -947.7217 -3080.5785 -946.3975 -3079.2544 C -945.0734 -3077.9303 -942.9266 -3077.9303 -941.6025 -3079.2544 C -940.2783 -3080.5785 -940.2783 -3082.7253 -941.6025 -3084.0494 M -942.2418 -3083.41 C -941.2708 -3082.439 -941.2708 -3080.8647 -942.2418 -3079.8937 C -943.2128 -3078.9227 -944.7872 -3078.9227 -945.7582 -3079.8937 C -946.7292 -3080.8647 -946.7292 -3082.439 -945.7582 -3083.41 C -944.7872 -3084.381 -943.2128 -3084.381 -942.2418 -3083.41"/></g><g id="Graphic_4342"><path fill="#d3673a" d="M -941.9744 -3086.3187 C -943.835 -3087.129 -946.0812 -3086.773 -947.603 -3085.2513 C -949.5892 -3083.265 -949.5892 -3080.045 -947.603 -3078.0587 C -947.1143 -3077.57 -946.551 -3077.2016 -945.9498 -3076.9534 L -945.5964 -3077.786 C -946.0937 -3077.99 -946.5597 -3078.294 -946.9636 -3078.698 C -948.5967 -3080.331 -948.5967 -3082.979 -946.9636 -3084.612 C -945.7102 -3085.8654 -943.8591 -3086.1568 -942.3278 -3085.4862 Z"/><path stroke="#d2673a" stroke-linecap="round" stroke-linejoin="round" stroke-width="0" d="M -941.9744 -3086.3187 C -943.835 -3087.129 -946.0812 -3086.773 -947.603 -3085.2513 C -949.5892 -3083.265 -949.5892 -3080.045 -947.603 -3078.0587 C -947.1143 -3077.57 -946.551 -3077.2016 -945.9498 -3076.9534 L -945.5964 -3077.786 C -946.0937 -3077.99 -946.5597 -3078.294 -946.9636 -3078.698 C -948.5967 -3080.331 -948.5967 -3082.979 -946.9636 -3084.612 C -945.7102 -3085.8654 -943.8591 -3086.1568 -942.3278 -3085.4862 Z"/></g><g id="Graphic_4341"><path fill="#3770a1" d="M -941.6488 -3077.7776 L -940.6882 -3077.7776 L -940.6882 -3080.897 L -943.9781 -3080.897 L -943.9781 -3079.986 L -941.6488 -3079.986 Z"/><path stroke="#000" stroke-linecap="round" stroke-linejoin="round" stroke-width="0" d="M -941.6488 -3077.7776 L -940.6882 -3077.7776 L -940.6882 -3080.897 L -943.9781 -3080.897 L -943.9781 -3079.986 L -941.6488 -3079.986 Z"/></g><g id="Graphic_4340"><path fill="#3570a0" d="M -942.106 -3080.034 C -942.144 -3079.9905 -942.1838 -3079.9478 -942.2254 -3079.9062 C -943.1964 -3078.935 -944.7707 -3078.935 -945.7417 -3079.9062 C -946.7128 -3080.8772 -946.7128 -3082.4515 -945.7417 -3083.4226 C -945.2907 -3083.8736 -944.7096 -3084.115 -944.1192 -3084.147 L -944.1192 -3085.0523 C -944.9412 -3085.0196 -945.7535 -3084.6895 -946.3811 -3084.062 C -947.7052 -3082.7378 -947.7052 -3080.591 -946.3811 -3079.267 C -945.057 -3077.9427 -942.9101 -3077.9427 -941.586 -3079.267 C -941.3528 -3079.5 -941.1606 -3079.759 -941.0095 -3080.034 Z"/><path stroke="#3770a0" stroke-linecap="round" stroke-linejoin="round" stroke-width="0" d="M -942.106 -3080.034 C -942.144 -3079.9905 -942.1838 -3079.9478 -942.2254 -3079.9062 C -943.1964 -3078.935 -944.7707 -3078.935 -945.7417 -3079.9062 C -946.7128 -3080.8772 -946.7128 -3082.4515 -945.7417 -3083.4226 C -945.2907 -3083.8736 -944.7096 -3084.115 -944.1192 -3084.147 L -944.1192 -3085.0523 C -944.9412 -3085.0196 -945.7535 -3084.6895 -946.3811 -3084.062 C -947.7052 -3082.7378 -947.7052 -3080.591 -946.3811 -3079.267 C -945.057 -3077.9427 -942.9101 -3077.9427 -941.586 -3079.267 C -941.3528 -3079.5 -941.1606 -3079.759 -941.0095 -3080.034 Z"/></g><g id="Graphic_4339"><path fill="#efb54f" d="M -938.3706 -3085.435 C -938.6111 -3085.792 -938.8892 -3086.1312 -939.2049 -3086.447 C -941.8532 -3089.0952 -946.1468 -3089.0952 -948.7951 -3086.447 C -950.8995 -3084.3426 -951.3316 -3081.199 -950.0915 -3078.668 L -949.3062 -3079.1214 C -950.3477 -3081.3054 -949.9642 -3083.999 -948.1557 -3085.8076 C -945.8606 -3088.1028 -942.1394 -3088.1028 -939.8443 -3085.8076 C -939.5857 -3085.549 -939.3562 -3085.2724 -939.1559 -3084.9817 Z"/><path stroke="#efb64f" stroke-linecap="round" stroke-linejoin="round" stroke-width="0" d="M -938.3706 -3085.435 C -938.6111 -3085.792 -938.8892 -3086.1312 -939.2049 -3086.447 C -941.8532 -3089.0952 -946.1468 -3089.0952 -948.7951 -3086.447 C -950.8995 -3084.3426 -951.3316 -3081.199 -950.0915 -3078.668 L -949.3062 -3079.1214 C -950.3477 -3081.3054 -949.9642 -3083.999 -948.1557 -3085.8076 C -945.8606 -3088.1028 -942.1394 -3088.1028 -939.8443 -3085.8076 C -939.5857 -3085.549 -939.3562 -3085.2724 -939.1559 -3084.9817 Z"/></g></g></g></g></g></svg>

<svg xmlns="http://www.w3.org/2000/svg" width="16" height="16" viewBox="-952 -3089.652 16 16"><g fill="none"><path fill="#fff" d="M-946.4-3089.652h4.8c1.6 0 2.4 0 3.36.32.8.32 1.6 1.12 1.92 1.92.32.96.32 1.76.32 3.36v4.8c0 1.6 0 2.4-.32 3.36-.32.8-1.12 1.6-1.92 1.92-.96.32-1.76.32-3.36.32h-4.8c-1.6 0-2.4 0-3.36-.32-.8-.32-1.6-1.12-1.92-1.92-.32-.96-.32-1.76-.32-3.36v-4.8c0-1.6 0-2.4.32-3.36.32-.8 1.12-1.6 1.92-1.92.96-.32 1.76-.32 3.36-.32m0 0"/><path fill="#efb54f" fill-opacity=".252" d="M-939.205-3086.447a6.781 6.781 0 1 0-9.59 9.59 6.781 6.781 0 0 0 9.59-9.59m-.64.64a5.877 5.877 0 1 1-8.31 8.31 5.877 5.877 0 0 1 8.31-8.31"/><path d="M-939.205-3086.447a6.781 6.781 0 1 0-9.59 9.59 6.781 6.781 0 0 0 9.59-9.59m-.64.64a5.877 5.877 0 1 1-8.31 8.31 5.877 5.877 0 0 1 8.31-8.31"/><path fill="#d3673a" fill-opacity=".249" d="M-940.404-3085.248a5.086 5.086 0 1 0-7.192 7.192 5.086 5.086 0 0 0 7.192-7.192m-.639.639a4.182 4.182 0 1 1-5.915 5.914 4.182 4.182 0 0 1 5.915-5.914"/><path d="M-940.404-3085.248a5.086 5.086 0 1 0-7.192 7.192 5.086 5.086 0 0 0 7.192-7.192m-.639.639a4.182 4.182 0 1 1-5.915 5.914 4.182 4.182 0 0 1 5.915-5.914"/><path fill="#3570a0" fill-opacity=".25" d="M-941.602-3084.05a3.39 3.39 0 1 0-4.796 4.795 3.39 3.39 0 0 0 4.796-4.794m-.64.639a2.486 2.486 0 1 1-3.516 3.516 2.486 2.486 0 0 1 3.516-3.516"/><path d="M-941.602-3084.05a3.39 3.39 0 1 0-4.796 4.795 3.39 3.39 0 0 0 4.796-4.794m-.64.639a2.486 2.486 0 1 1-3.516 3.516 2.486 2.486 0 0 1 3.516-3.516"/><path fill="#d3673a" d="M-941.974-3086.319a5.088 5.088 0 1 0-3.976 9.366l.354-.833a4.182 4.182 0 1 1 3.269-7.7Z"/><path d="M-941.974-3086.319a5.088 5.088 0 1 0-3.976 9.366l.354-.833a4.182 4.182 0 1 1 3.269-7.7Z"/><path fill="#3770a1" d="M-941.649-3077.778h.96v-3.119h-3.29v.911h2.33Z"/><path d="M-941.649-3077.778h.96v-3.119h-3.29v.911h2.33Z"/><path fill="#3570a0" d="M-942.106-3080.034a2.486 2.486 0 1 1-2.013-4.113v-.905a3.39 3.39 0 1 0 3.11 5.018Z"/><path d="M-942.106-3080.034a2.486 2.486 0 1 1-2.013-4.113v-.905a3.39 3.39 0 1 0 3.11 5.018Z"/><path fill="#efb54f" d="M-938.37-3085.435a6.781 6.781 0 0 0-11.72 6.767l.784-.453a5.88 5.88 0 0 1 10.15-5.86Z"/><path d="M-938.37-3085.435a6.781 6.781 0 0 0-11.72 6.767l.784-.453a5.88 5.88 0 0 1 10.15-5.86Z"/></g></svg>
